X: 2
T: The Lark In The Morning
R: jig
M: 6/8
L: 1/8
K: Dmaj
|:A3 AFA|B3 BdB|A3 AFA|fge fdB|A3 AFA|B3 BAB|def afe|fdB BAB:||:def a3| baf afe|def afe|fdB BdB|def a3|baf a2f|g3 f3|edB BAB:||:d2f fef|fef fef|d2f fef|edB BAB|d2f fef|fef def|g2e f2d|edB BdB:||:Add fdd|edd fdB|Add fdd|edB BAB|Add fdd|edB def| g2e f2d|edB BdB:|


Tune 62	Setting 21313

